dist/svgs/carbon-icons/svg/mobile.svg

<svg xmlns="http://www.w3.org/2000/svg" viewBox="0 0 24 24"><path d="M23 0H1C.5 0 0 .5 0 1v21c0 .6.5 1 1 1h22c.6 0 1-.5 1-1V1c0-.5-.5-1-1-1zM1 1h7v3H1V1zm22 21H1V5h22v17zm0-21v3H9V1h14z"/><circle cx="2.5" cy="2.5" r=".5"/><circle cx="4.5" cy="2.5" r=".5"/><circle cx="6.5" cy="2.5" r=".5"/><path d="M7.5 8h-5c-.3 0-.5-.2-.5-.5s.2-.5.5-.5h5c.3 0 .5.2.5.5s-.2.5-.5.5zm3 3h-8c-.3 0-.5-.2-.5-.5s.2-.5.5-.5h8c.3 0 .5.2.5.5s-.2.5-.5.5zm3-3h-4c-.3 0-.5-.2-.5-.5s.2-.5.5-.5h4c.3 0 .5.2.5.5s-.2.5-.5.5zm1 3h-2c-.3 0-.5-.2-.5-.5s.2-.5.5-.5h2c.3 0 .5.2.5.5s-.2.5-.5.5zm-10 3h-2c-.3 0-.5-.2-.5-.5s.2-.5.5-.5h2c.3 0 .5.2.5.5s-.2.5-.5.5zm4 0h-1c-.3 0-.5-.2-.5-.5s.2-.5.5-.5h1c.3 0 .5.2.5.5s-.2.5-.5.5zm11-3h-3c-.3 0-.5-.2-.5-.5s.2-.5.5-.5h3c.3 0 .5.2.5.5s-.2.5-.5.5z"/></svg>

<?xml version="1.0" encoding="utf-8"?>
<!-- Generator: Adobe Illustrator 19.1.0, SVG Export Plug-In . SVG Version: 6.00 Build 0)  -->
<!DOCTYPE svg PUBLIC "-//W3C//DTD SVG 1.1//EN" "http://www.w3.org/Graphics/SVG/1.1/DTD/svg11.dtd">
<svg version="1.1" id="Layer_1" xmlns="http://www.w3.org/2000/svg" xmlns:xlink="http://www.w3.org/1999/xlink" x="0px" y="0px"
	 width="24px" height="24px" viewBox="0 0 24 24" style="enable-background:new 0 0 24 24;" xml:space="preserve">
<path d="M23,0H1C0.5,0,0,0.5,0,1v3v1v17c0,0.6,0.5,1,1,1h22c0.6,0,1-0.5,1-1V1C24,0.5,23.5,0,23,0z M1,1h7v3H1V1z M23,22H1V5h6h1h15
	V22z M23,1v3H9V1L23,1C23,1,23,1,23,1z"/>
<circle cx="2.5" cy="2.5" r="0.5"/>
<circle cx="4.5" cy="2.5" r="0.5"/>
<circle cx="6.5" cy="2.5" r="0.5"/>
<path d="M7.5,8h-5C2.2,8,2,7.8,2,7.5v0C2,7.2,2.2,7,2.5,7h5C7.8,7,8,7.2,8,7.5v0C8,7.8,7.8,8,7.5,8z"/>
<path d="M10.5,11h-8C2.2,11,2,10.8,2,10.5v0C2,10.2,2.2,10,2.5,10h8c0.3,0,0.5,0.2,0.5,0.5v0C11,10.8,10.8,11,10.5,11z"/>
<path d="M13.5,8h-4C9.2,8,9,7.8,9,7.5v0C9,7.2,9.2,7,9.5,7h4C13.8,7,14,7.2,14,7.5v0C14,7.8,13.8,8,13.5,8z"/>
<path d="M14.5,11h-2c-0.3,0-0.5-0.2-0.5-0.5v0c0-0.3,0.2-0.5,0.5-0.5h2c0.3,0,0.5,0.2,0.5,0.5v0C15,10.8,14.8,11,14.5,11z"/>
<path d="M4.5,14h-2C2.2,14,2,13.8,2,13.5v0C2,13.2,2.2,13,2.5,13h2C4.8,13,5,13.2,5,13.5v0C5,13.8,4.8,14,4.5,14z"/>
<path d="M8.5,14h-1C7.2,14,7,13.8,7,13.5v0C7,13.2,7.2,13,7.5,13h1C8.8,13,9,13.2,9,13.5v0C9,13.8,8.8,14,8.5,14z"/>
<path d="M19.5,11h-3c-0.3,0-0.5-0.2-0.5-0.5v0c0-0.3,0.2-0.5,0.5-0.5h3c0.3,0,0.5,0.2,0.5,0.5v0C20,10.8,19.8,11,19.5,11z"/>
</svg>
